X: 4
T: The Black Rogue
R: jig
M: 6/8
L: 1/8
K: Dmaj
|: d | cA=c BGB | cAA A2d | cA=c BGB | AFD D2d |cA=c BGB | cAA A2d | G3 BGB | AFD D2 :||: e | f3 g3 | afd cBA | f3 g3 | afd dfg |agf gfe | fed e2d | cA=c BGB | AFD D2 :||: d | .cA=c {Bc}BGB | .cAA {BAG}A2d | .cA=c {Bc}BGB | {AB}AFD {A}D2d |.cA=c {Bc}BGB | .cAA {BAG}A2F | ~G3 {c}BGB | {AB}AFD {A}D2 :||: e | ~f3 ~g3 | {b}afd {AB}cBA | ~f3 ~g3 | a.fd dfg |{b}afg {a}gfe | fed {ged}e2d | cA=c {Bc}BGB | {AB}AFD {A}D2 :|


Tune 1076	Setting 14308

